src/lib/packages/icons/src/assets/filled/school.svg

<svg width="24" height="24" viewBox="0 0 24 24" fill="none" xmlns="http://www.w3.org/2000/svg">
<path d="M22 21.2501H21V13.5001C21 12.6701 20.33 12.0001 19.5 12.0001H18V6.57504L19.5861 7.62606C19.7131 7.71006 19.857 7.75106 19.999 7.75106C20.242 7.75106 20.48 7.63313 20.625 7.41513C20.854 7.07013 20.7599 6.60409 20.4139 6.37509L13.248 1.62802C12.491 1.12302 11.511 1.12204 10.754 1.62704L3.58606 6.37509C3.24006 6.60409 3.146 7.06913 3.375 7.41513C3.604 7.76013 4.06894 7.85506 4.41394 7.62606L6 6.57504V12.0001H4.5C3.67 12.0001 3 12.6701 3 13.5001V21.2501H2C1.586 21.2501 1.25 21.5861 1.25 22.0001C1.25 22.4141 1.586 22.7501 2 22.7501H22C22.414 22.7501 22.75 22.4141 22.75 22.0001C22.75 21.5861 22.414 21.2501 22 21.2501ZM15 9.50009C15 11.1601 13.66 12.5001 12 12.5001C10.34 12.5001 9 11.1601 9 9.50009C9 7.84009 10.34 6.50009 12 6.50009C13.66 6.50009 15 7.84009 15 9.50009ZM16.75 18.0001C16.75 17.5861 17.086 17.2501 17.5 17.2501C17.914 17.2501 18.25 17.5861 18.25 18.0001C18.25 18.4141 17.914 18.7501 17.5 18.7501C17.086 18.7501 16.75 18.4141 16.75 18.0001ZM18.25 15.5001C18.25 15.9141 17.914 16.2501 17.5 16.2501C17.086 16.2501 16.75 15.9141 16.75 15.5001C16.75 15.0861 17.086 14.7501 17.5 14.7501C17.914 14.7501 18.25 15.0861 18.25 15.5001ZM6.5 14.7501C6.914 14.7501 7.25 15.0861 7.25 15.5001C7.25 15.9141 6.914 16.2501 6.5 16.2501C6.086 16.2501 5.75 15.9141 5.75 15.5001C5.75 15.0861 6.086 14.7501 6.5 14.7501ZM6.5 17.2501C6.914 17.2501 7.25 17.5861 7.25 18.0001C7.25 18.4141 6.914 18.7501 6.5 18.7501C6.086 18.7501 5.75 18.4141 5.75 18.0001C5.75 17.5861 6.086 17.2501 6.5 17.2501ZM10 18.0001C10 16.8961 10.896 16.0001 12 16.0001C13.104 16.0001 14 16.8961 14 18.0001V21.2501H10V18.0001ZM11.5 9.50009V8.37997C11.5 8.09997 11.72 7.87997 12 7.87997C12.28 7.87997 12.5 8.09997 12.5 8.37997V9.50009C12.5 9.78009 12.28 10.0001 12 10.0001C11.72 10.0001 11.5 9.78009 11.5 9.50009Z" fill="currentColor"/>
</svg>

<svg xmlns="http://www.w3.org/2000/svg" width="24" height="24" fill="none"><path fill="currentColor" d="M22 21.25h-1V13.5c0-.83-.67-1.5-1.5-1.5H18V6.575l1.586 1.051a.748.748 0 0 0 1.039-.21.75.75 0 0 0-.211-1.04l-7.166-4.748a2.242 2.242 0 0 0-2.494-.001L3.586 6.375a.75.75 0 1 0 .828 1.251L6 6.575V12H4.5c-.83 0-1.5.67-1.5 1.5v7.75H2a.75.75 0 0 0 0 1.5h20a.75.75 0 0 0 0-1.5ZM15 9.5c0 1.66-1.34 3-3 3s-3-1.34-3-3 1.34-3 3-3 3 1.34 3 3Zm1.75 8.5a.75.75 0 1 1 1.5 0 .75.75 0 0 1-1.5 0Zm1.5-2.5a.75.75 0 1 1-1.5 0 .75.75 0 0 1 1.5 0ZM6.5 14.75a.75.75 0 1 1 0 1.5.75.75 0 0 1 0-1.5Zm0 2.5a.75.75 0 1 1 0 1.5.75.75 0 0 1 0-1.5ZM10 18a2 2 0 0 1 4 0v3.25h-4V18Zm1.5-8.5V8.38c0-.28.22-.5.5-.5s.5.22.5.5V9.5c0 .28-.22.5-.5.5s-.5-.22-.5-.5Z"/></svg>
